resources/haticons/SVG/briefcase.svg

<!-- Generated by IcoMoon.io -->
<svg version="1.1" xmlns="http://www.w3.org/2000/svg" width="24" height="24" viewBox="0 0 24 24">
<title>briefcase</title>
<path d="M22.5 6h-6v-1.5c0-0.825-0.675-1.5-1.5-1.5h-6c-0.825 0-1.5 0.675-1.5 1.5v1.5h-6c-0.825 0-1.5 0.675-1.5 1.5v13.5c0 0.825 0.675 1.5 1.5 1.5h21c0.825 0 1.5-0.675 1.5-1.5v-13.5c0-0.825-0.675-1.5-1.5-1.5zM9 4.503c0.001-0.001 0.002-0.002 0.003-0.003h5.995c0.001 0.001 0.002 0.002 0.003 0.003v1.497h-6v-1.497zM22.5 12h-3v2.25c0 0.413-0.337 0.75-0.75 0.75h-1.5c-0.413 0-0.75-0.337-0.75-0.75v-2.25h-9v2.25c0 0.413-0.337 0.75-0.75 0.75h-1.5c-0.413 0-0.75-0.337-0.75-0.75v-2.25h-3v-1.5h21v1.5z"></path>
</svg>

<svg xmlns="http://www.w3.org/2000/svg" width="24" height="24"><path d="M22.5 6h-6V4.5c0-.825-.675-1.5-1.5-1.5H9c-.825 0-1.5.675-1.5 1.5V6h-6C.675 6 0 6.675 0 7.5V21c0 .825.675 1.5 1.5 1.5h21c.825 0 1.5-.675 1.5-1.5V7.5c0-.825-.675-1.5-1.5-1.5zM9 4.503l.003-.003h5.995l.003.003V6h-6V4.503zM22.5 12h-3v2.25c0 .413-.337.75-.75.75h-1.5a.752.752 0 0 1-.75-.75V12h-9v2.25c0 .413-.337.75-.75.75h-1.5a.752.752 0 0 1-.75-.75V12h-3v-1.5h21V12z"/></svg>
